icon-svg/twinkly-festoon.svg

<svg xmlns="http://www.w3.org/2000/svg" fill="#44739e" viewBox="0 0 24 24"><path d="M20.9 11.925h-2.1a1.856 1.856 0 1 0 2.91 1.523 1.834 1.834 0 0 0-.81-1.523m-1.916-1.775v.521h-.046a.166.166 0 0 0-.166.166v.563a.172.172 0 0 0 .166.166h-.031l-.012.029v.01c-.009.02-.015.042-.024.062h2.006a.5.5 0 0 1-.019-.056V11.6l-.017-.038h-.076a.167.167 0 0 0 .113-.051.162.162 0 0 0 .046-.112v-.559a.166.166 0 0 0-.166-.166h-.041v-.746a2.65 2.65 0 0 0 .842-1.2 6.464 6.464 0 0 0 .359-3.29l-.656-3.433h-.2l.67 3.5a6.066 6.066 0 0 1-.332 3.088 2.644 2.644 0 0 1-.681 1.027.372.372 0 0 0-.372-.373h-.994a.372.372 0 0 0-.372.373v.268a1.46 1.46 0 0 1-1.044-.7 14.74 14.74 0 0 1-1.008-3.9c-.047-.264-.1-.54-.149-.831a12.35 12.35 0 0 0-.686-2.445h-.424c.039.135.089.3.154.514.106.348.237.781.39 1.321a7.77 7.77 0 0 1-.477 4.273 2.47 2.47 0 0 1-.953 1.038v-.277a.373.373 0 0 0-.372-.373h-.994a.373.373 0 0 0-.372.373v.139a3.14 3.14 0 0 1-.835-.913c-1.062-1.668-.72-4.885-.576-6.107h-.253c-.02.173-.043.386-.071.654-.174 1.648-.5 4.714-1.338 5.453a3 3 0 0 1-.3.238v-.163a.373.373 0 0 0-.373-.373h-.99a.373.373 0 0 0-.372.373v.09a3 3 0 0 1-.227-.24c-1.087-1.276-.976-4.141-.922-5.519C6.8 2.306 6.8 2.142 6.8 2h-.274v.452c.008 1.5.024 4.609-1.41 5.788l-.051.041v-.229a.372.372 0 0 0-.365-.373h-1a.373.373 0 0 0-.373.373V8.3c-.023-.02-.046-.04-.069-.062C2.248 7.32 1.784 4.773 2.645 2h-.2a9.77 9.77 0 0 0-.4 3.66 4.416 4.416 0 0 0 1.12 2.8c.059.053.115.1.171.147v.5h-.051a.165.165 0 0 0-.166.164v.559a.166.166 0 0 0 .166.17h-.031l-.007.017-.009.022c-.012.026-.019.052-.03.078h2.018c-.011-.026-.017-.054-.028-.08l-.009-.02L5.181 10h-.075a.167.167 0 0 0 .165-.166v-.56a.165.165 0 0 0-.165-.165h-.042v-.521c.048-.036.1-.074.146-.115a5.2 5.2 0 0 0 1.4-3.417c.008.11.017.221.028.331a5.213 5.213 0 0 0 .953 2.851 3 3 0 0 0 .348.35v.649H7.9a.166.166 0 0 0-.166.166v.558a.134.134 0 0 0 .032.085.186.186 0 0 0 .087.059c.008 0 .012.01.02.011h1.871c.006 0 .01-.007.017-.009a.187.187 0 0 0 .088-.058.13.13 0 0 0 .034-.088V9.4a.166.166 0 0 0-.166-.166h-.041v-.591a3.7 3.7 0 0 0 .4-.307c.64-.564.989-2.22 1.206-3.783a7.33 7.33 0 0 0 .791 3.735 3.31 3.31 0 0 0 .976 1.03v.618h-.041a.166.166 0 0 0-.166.166v.558a.157.157 0 0 0 .1.14c.021.009.038.026.063.026h-.031l-.016.039-.006.015h1.972l-.006-.016-.017-.038h-.075a.163.163 0 0 0 .11-.046.159.159 0 0 0 .064-.12v-.56a.166.166 0 0 0-.166-.166h-.044v-.5a2.677 2.677 0 0 0 1.1-1.159A6.6 6.6 0 0 0 16.5 5.7a7.27 7.27 0 0 0-.107-1.959c-.154-.543-.286-.978-.392-1.327-.041-.135-.08-.264-.114-.379a11.4 11.4 0 0 1 .713 2.478c.053.291.1.567.149.83a14.9 14.9 0 0 0 1.037 3.991 1.657 1.657 0 0 0 1.198.816m-4.111.993h-1.857a1.861 1.861 0 1 0 1.857 0m-9.723-.764H3.259a1.86 1.86 0 1 0 1.891 0m4.586-.002H7.85a1.859 1.859 0 1 0 1.886 0"/></svg>

<?xml version="1.0" encoding="UTF-8"?>
<svg width="24px" fill="#44739e" height="24px" viewBox="0 0 24 24" version="1.1" xmlns="http://www.w3.org/2000/svg" xmlns:xlink="http://www.w3.org/1999/xlink">
            <path d="m 20.9,11.925 h -2.1 a 1.856,1.856 0 1 0 2.91,1.523 1.834,1.834 0 0 0 -0.81,-1.523 z M 18.984,10.15 v 0.521 h -0.046 a 0.166,0.166 0 0 0 -0.166,0.166 V 11.4 a 0.172,0.172 0 0 0 0.166,0.166 h -0.031 l -0.012,0.029 v 0.01 c -0.009,0.02 -0.015,0.042 -0.024,0.062 h 2.006 A 0.527,0.527 0 0 1 20.858,11.611 V 11.6 l -0.017,-0.038 h -0.076 a 0.167,0.167 0 0 0 0.113,-0.051 0.162,0.162 0 0 0 0.046,-0.112 V 10.84 A 0.166,0.166 0 0 0 20.758,10.674 H 20.717 V 9.928 a 2.649,2.649 0 0 0 0.842,-1.2 6.464,6.464 0 0 0 0.359,-3.29 L 21.262,2.005 h -0.2 l 0.67,3.5 A 6.066,6.066 0 0 1 21.4,8.593 2.644,2.644 0 0 1 20.719,9.62 0.372,0.372 0 0 0 20.347,9.247 H 19.353 A 0.372,0.372 0 0 0 18.981,9.62 v 0.268 a 1.46,1.46 0 0 1 -1.044,-0.7 14.74,14.74 0 0 1 -1.008,-3.9 C 16.882,5.024 16.829,4.748 16.78,4.457 A 12.354,12.354 0 0 0 16.094,2.012 H 15.67 c 0.039,0.135 0.089,0.3 0.154,0.514 0.106,0.348 0.237,0.781 0.39,1.321 A 7.768,7.768 0 0 1 15.737,8.12 2.468,2.468 0 0 1 14.784,9.158 V 8.881 A 0.373,0.373 0 0 0 14.412,8.508 H 13.418 A 0.373,0.373 0 0 0 13.046,8.881 V 9.02 A 3.138,3.138 0 0 1 12.211,8.107 C 11.149,6.439 11.491,3.222 11.635,2 h -0.253 c -0.02,0.173 -0.043,0.386 -0.071,0.654 -0.174,1.648 -0.5,4.714 -1.338,5.453 a 2.984,2.984 0 0 1 -0.3,0.238 V 8.182 A 0.373,0.373 0 0 0 9.3,7.809 H 8.31 A 0.373,0.373 0 0 0 7.938,8.182 v 0.09 A 3.025,3.025 0 0 1 7.711,8.032 C 6.624,6.756 6.735,3.891 6.789,2.513 6.8,2.306 6.8,2.142 6.8,2 H 6.526 V 2.452 C 6.534,3.952 6.55,7.061 5.116,8.24 L 5.065,8.281 V 8.052 A 0.372,0.372 0 0 0 4.7,7.679 h -1 A 0.373,0.373 0 0 0 3.327,8.052 V 8.3 C 3.304,8.28 3.281,8.26 3.258,8.238 2.248,7.32 1.784,4.773 2.645,2 h -0.2 a 9.768,9.768 0 0 0 -0.4,3.66 4.416,4.416 0 0 0 1.12,2.8 c 0.059,0.053 0.115,0.1 0.171,0.147 v 0.5 H 3.285 A 0.165,0.165 0 0 0 3.119,9.271 V 9.83 A 0.166,0.166 0 0 0 3.285,10 H 3.254 l -0.007,0.017 -0.009,0.022 c -0.012,0.026 -0.019,0.052 -0.03,0.078 H 5.226 C 5.215,10.091 5.209,10.063 5.198,10.037 L 5.189,10.017 5.181,10 H 5.106 A 0.167,0.167 0 0 0 5.271,9.834 V 9.274 A 0.165,0.165 0 0 0 5.106,9.109 H 5.064 V 8.588 C 5.112,8.552 5.164,8.514 5.21,8.473 a 5.2,5.2 0 0 0 1.4,-3.417 c 0.008,0.11 0.017,0.221 0.028,0.331 a 5.213,5.213 0 0 0 0.953,2.851 3.027,3.027 0 0 0 0.348,0.35 V 9.237 H 7.9 A 0.166,0.166 0 0 0 7.734,9.403 v 0.558 a 0.134,0.134 0 0 0 0.032,0.085 0.186,0.186 0 0 0 0.087,0.059 c 0.008,0 0.012,0.01 0.02,0.011 h 1.871 c 0.006,0 0.01,-0.007 0.017,-0.009 A 0.187,0.187 0 0 0 9.849,10.049 0.131,0.131 0 0 0 9.883,9.961 V 9.4 A 0.166,0.166 0 0 0 9.717,9.234 H 9.676 V 8.643 a 3.721,3.721 0 0 0 0.4,-0.307 c 0.64,-0.564 0.989,-2.22 1.206,-3.783 a 7.328,7.328 0 0 0 0.791,3.735 3.31,3.31 0 0 0 0.976,1.03 v 0.618 h -0.041 a 0.166,0.166 0 0 0 -0.166,0.166 v 0.558 a 0.157,0.157 0 0 0 0.1,0.14 c 0.021,0.009 0.038,0.026 0.063,0.026 h -0.031 l -0.016,0.039 -0.006,0.015 h 1.972 L 14.918,10.864 14.901,10.826 H 14.826 A 0.163,0.163 0 0 0 14.936,10.78 0.159,0.159 0 0 0 15,10.66 V 10.1 A 0.166,0.166 0 0 0 14.834,9.934 H 14.79 v -0.5 A 2.677,2.677 0 0 0 15.89,8.275 6.6,6.6 0 0 0 16.5,5.7 7.271,7.271 0 0 0 16.393,3.741 C 16.239,3.198 16.107,2.763 16.001,2.414 15.96,2.279 15.921,2.15 15.887,2.035 A 11.4,11.4 0 0 1 16.6,4.513 c 0.053,0.291 0.1,0.567 0.149,0.83 a 14.9,14.9 0 0 0 1.037,3.991 1.657,1.657 0 0 0 1.198,0.816 z m -4.111,0.993 h -1.857 a 1.861,1.861 0 1 0 1.857,0 z M 5.15,10.379 H 3.259 a 1.86,1.86 0 1 0 1.891,0 z M 9.736,10.377 H 7.85 a 1.859,1.859 0 1 0 1.886,0 z"/>

</svg>
